icon-themes/sifr_svg/cmd/lc_numberformatmenu.svg

<svg viewBox="0 0 24 24" xmlns="http://www.w3.org/2000/svg"><path d="m5 1v2.2636719a4.5 4.5 0 0 0 -3 4.2363281 4.5 4.5 0 0 0 3 4.236328v6.763672a2.5 2.5 0 0 1 -1-2 2.5 2.5 0 0 1 0-.076172v-.423828h-2v.423828a4.5 4.5 0 0 0 0 .076172 4.5 4.5 0 0 0 3 4.236328v2.263672h3v-2.263672a4.5 4.5 0 0 0 3-4.236328 4.5 4.5 0 0 0 -3-4.236328v-6.763672a2.5 2.5 0 0 1 1 2v.5h2v-.5a4.5 4.5 0 0 0 -3-4.2363281v-2.2636719zm12.5 2a4.5 4.5 0 0 0 -4.5 4.5v9a4.5 4.5 0 0 0 4.5 4.5 4.5 4.5 0 0 0 4.5-4.5v-9a4.5 4.5 0 0 0 -4.5-4.5zm0 2a2.5 2.5 0 0 1 2.5 2.5v9a2.5 2.5 0 0 1 -2.5 2.5 2.5 2.5 0 0 1 -2.5-2.5v-9a2.5 2.5 0 0 1 2.5-2.5zm-12.5.5v4a2.5 2.5 0 0 1 -1-2 2.5 2.5 0 0 1 1-2zm3 9a2.5 2.5 0 0 1 1 2 2.5 2.5 0 0 1 -1 2z" fill="#555753"/></svg>

<svg xmlns="http://www.w3.org/2000/svg" viewBox="0 0 24 24">
  <path
     style="fill:#555753"
     d="M 5 1 L 5 3.2636719 A 4.5 4.5 0 0 0 2 7.5 A 4.5 4.5 0 0 0 5 11.736328 L 5 18.5 A 2.5 2.5 0 0 1 4 16.5 A 2.5 2.5 0 0 1 4 16.423828 L 4 16 L 2 16 L 2 16.423828 L 2 16.423828 A 4.5 4.5 0 0 0 2 16.5 A 4.5 4.5 0 0 0 5 20.736328 L 5 23 L 8 23 L 8 20.736328 A 4.5 4.5 0 0 0 11 16.5 A 4.5 4.5 0 0 0 8 12.263672 L 8 5.5 A 2.5 2.5 0 0 1 9 7.5 L 9 8 L 11 8 L 11 7.5 A 4.5 4.5 0 0 0 8 3.2636719 L 8 1 L 5 1 z M 17.5 3 A 4.5 4.5 0 0 0 13 7.5 L 13 16.5 A 4.5 4.5 0 0 0 17.5 21 A 4.5 4.5 0 0 0 22 16.5 L 22 7.5 A 4.5 4.5 0 0 0 17.5 3 z M 17.5 5 A 2.5 2.5 0 0 1 20 7.5 L 20 16.5 A 2.5 2.5 0 0 1 17.5 19 A 2.5 2.5 0 0 1 15 16.5 L 15 7.5 A 2.5 2.5 0 0 1 17.5 5 z M 5 5.5 L 5 9.5 A 2.5 2.5 0 0 1 4 7.5 A 2.5 2.5 0 0 1 5 5.5 z M 8 14.5 A 2.5 2.5 0 0 1 9 16.5 A 2.5 2.5 0 0 1 8 18.5 L 8 14.5 z "
     />
</svg>
